src/assets/icons/numbers,fancy,02.svg

<svg width="48" height="48" viewBox="0 0 48 48" fill="none" xmlns="http://www.w3.org/2000/svg">
<path d="M13.7603 39H34.4989V33.9716H22.283V33.7727L26.5302 29.6108C32.5103 24.1562 34.1154 21.429 34.1154 18.1193C34.1154 13.0767 29.9961 9.51136 23.7603 9.51136C17.6523 9.51136 13.462 13.1619 13.4762 18.8722H19.3143C19.3001 16.0881 21.0614 14.3835 23.7177 14.3835C26.2745 14.3835 28.1779 15.9744 28.1779 18.5312C28.1779 20.8466 26.7575 22.4375 24.1154 24.9801L13.7603 34.5682V39Z" fill="black"/>
</svg>

<svg xmlns="http://www.w3.org/2000/svg" width="48" height="48" fill="none" viewBox="0 0 48 48">
  <path fill="#000" d="M13.76 39H34.5v-5.028H22.283v-.2l4.247-4.161c5.98-5.455 7.585-8.182 7.585-11.492 0-5.042-4.119-8.608-10.355-8.608-6.108 0-10.298 3.65-10.284 9.361h5.838c-.014-2.784 1.747-4.489 4.404-4.489 2.556 0 4.46 1.591 4.46 4.148 0 2.316-1.42 3.907-4.063 6.45L13.76 34.567V39z"/>
</svg>
